packages/assets/static/images/icons/laptop.svg

<svg width="24" height="24" viewBox="0 0 24 24" xmlns="http://www.w3.org/2000/svg">
<path d="M21.75 15.75H21V6.75C21 6.15326 20.7629 5.58097 20.341 5.15901C19.919 4.73705 19.3467 4.5 18.75 4.5H5.25C4.65326 4.5 4.08097 4.73705 3.65901 5.15901C3.23705 5.58097 3 6.15326 3 6.75V15.75H2.25C2.05109 15.75 1.86032 15.829 1.71967 15.9697C1.57902 16.1103 1.5 16.3011 1.5 16.5V18C1.5 18.5967 1.73705 19.169 2.15901 19.591C2.58097 20.0129 3.15326 20.25 3.75 20.25H20.25C20.8467 20.25 21.419 20.0129 21.841 19.591C22.2629 19.169 22.5 18.5967 22.5 18V16.5C22.5 16.3011 22.421 16.1103 22.2803 15.9697C22.1397 15.829 21.9489 15.75 21.75 15.75ZM4.5 6.75C4.5 6.55109 4.57902 6.36032 4.71967 6.21967C4.86032 6.07902 5.05109 6 5.25 6H18.75C18.9489 6 19.1397 6.07902 19.2803 6.21967C19.421 6.36032 19.5 6.55109 19.5 6.75V15.75H4.5V6.75ZM21 18C21 18.1989 20.921 18.3897 20.7803 18.5303C20.6397 18.671 20.4489 18.75 20.25 18.75H3.75C3.55109 18.75 3.36032 18.671 3.21967 18.5303C3.07902 18.3897 3 18.1989 3 18V17.25H21V18ZM14.25 8.25C14.25 8.44891 14.171 8.63968 14.0303 8.78033C13.8897 8.92098 13.6989 9 13.5 9H10.5C10.3011 9 10.1103 8.92098 9.96967 8.78033C9.82902 8.63968 9.75 8.44891 9.75 8.25C9.75 8.05109 9.82902 7.86032 9.96967 7.71967C10.1103 7.57902 10.3011 7.5 10.5 7.5H13.5C13.6989 7.5 13.8897 7.57902 14.0303 7.71967C14.171 7.86032 14.25 8.05109 14.25 8.25Z"/>
</svg>

<svg viewBox="0 0 24 24" xmlns="http://www.w3.org/2000/svg" aria-hidden="true" fill="currentColor"><path d="M21.75 15.75H21v-9a2.25 2.25 0 0 0-2.25-2.25H5.25A2.25 2.25 0 0 0 3 6.75v9h-.75a.75.75 0 0 0-.75.75V18a2.25 2.25 0 0 0 2.25 2.25h16.5A2.25 2.25 0 0 0 22.5 18v-1.5a.75.75 0 0 0-.75-.75m-17.25-9A.75.75 0 0 1 5.25 6h13.5a.75.75 0 0 1 .75.75v9h-15zM21 18a.75.75 0 0 1-.75.75H3.75A.75.75 0 0 1 3 18v-.75h18zm-6.75-9.75a.75.75 0 0 1-.75.75h-3a.75.75 0 1 1 0-1.5h3a.75.75 0 0 1 .75.75"/></svg>
